packages/foundations/assets/icons/functional/images/file/download.svg

<svg xmlns="http://www.w3.org/2000/svg" width="32" height="32" fill="none"><path fill="#1A1C1F" fill-rule="evenodd" d="M15.507 2.137a1.1 1.1 0 0 0-.347.327l-.147.222-.026 7.946-.027 7.946-2.133-2.17q-2.133-2.17-2.351-2.276a1.13 1.13 0 0 0-1.013.027c-.397.233-.559.781-.367 1.243.101.244 6.066 6.242 6.413 6.448a.98.98 0 0 0 .948.026c.308-.16 6.343-6.219 6.448-6.474.191-.463.029-1.01-.368-1.243a1.13 1.13 0 0 0-1.014-.027c-.146.07-.923.823-2.35 2.276l-2.133 2.17-.027-7.946-.026-7.946-.147-.222c-.276-.417-.882-.565-1.333-.327M4.665 20.057c-.202.058-.498.342-.593.568-.11.263-.103 6.569.008 7.041.249 1.058 1.06 1.907 2.133 2.236.306.094.75.098 9.814.098h9.493l.386-.141c.212-.078.5-.208.64-.289.395-.229.921-.797 1.122-1.211.335-.694.336-.703.32-4.376l-.015-3.324-.127-.186c-.354-.516-1.036-.615-1.508-.218-.346.291-.335.183-.365 3.829l-.026 3.311-.154.202a1.2 1.2 0 0 1-.373.301c-.212.096-.548.1-9.42.1s-9.208-.004-9.42-.1a1.2 1.2 0 0 1-.373-.301l-.154-.202-.026-3.311c-.021-2.573-.043-3.346-.097-3.471-.208-.474-.742-.709-1.265-.556"/></svg>

<svg width="32" height="32" viewBox="0 0 32 32" fill="none" xmlns="http://www.w3.org/2000/svg"><path d="M15.507 2.137 C 15.396 2.195,15.240 2.342,15.160 2.464 L 15.013 2.686 14.987 10.632 L 14.960 18.578 12.827 16.408 C 11.405 14.961,10.621 14.202,10.476 14.132 C 10.163 13.980,9.750 13.991,9.463 14.159 C 9.066 14.392,8.904 14.940,9.096 15.402 C 9.197 15.646,15.162 21.644,15.509 21.850 C 15.796 22.021,16.159 22.031,16.457 21.876 C 16.765 21.716,22.800 15.657,22.905 15.402 C 23.096 14.939,22.934 14.392,22.537 14.159 C 22.250 13.991,21.837 13.980,21.523 14.132 C 21.377 14.202,20.600 14.955,19.173 16.408 L 17.040 18.578 17.013 10.632 L 16.987 2.686 16.840 2.464 C 16.564 2.047,15.958 1.899,15.507 2.137 M4.665 20.057 C 4.463 20.115,4.167 20.399,4.072 20.625 C 3.962 20.888,3.969 27.194,4.080 27.666 C 4.329 28.724,5.140 29.573,6.213 29.902 C 6.519 29.996,6.963 30.000,16.027 30.000 L 25.520 30.000 25.906 29.859 C 26.118 29.781,26.406 29.651,26.546 29.570 C 26.941 29.341,27.467 28.773,27.668 28.359 C 28.003 27.665,28.004 27.656,27.988 23.983 L 27.973 20.659 27.846 20.473 C 27.492 19.957,26.810 19.858,26.338 20.255 C 25.992 20.546,26.003 20.438,25.973 24.084 L 25.947 27.395 25.793 27.597 C 25.708 27.708,25.540 27.843,25.420 27.898 C 25.208 27.994,24.872 27.998,16.000 27.998 C 7.128 27.998,6.792 27.994,6.580 27.898 C 6.460 27.843,6.292 27.708,6.207 27.597 L 6.053 27.395 6.027 24.084 C 6.006 21.511,5.984 20.738,5.930 20.613 C 5.722 20.139,5.188 19.904,4.665 20.057 " fill="#1A1C1F" stroke="none" fill-rule="evenodd"></path></svg>
